X: 11082
M: C
L: 1/16
K: D
(A3B) A2d2 F4 A2F2 | E4 e3d (d2c2B2)A2 | (d3e) f2e2 d4 F2G2 | (A2d2) B2G2 (F3G/F/) E2A2 |
(d2c2) B2A2 (A2d2) d2e2 | f4 (gf) (ed) (~c3d) e2c2 | (d3e) f2c2 ~d3e f2B2 | B2g2 (fe) (dc) HB6 c2 | d4 d2d2 dfaf d2A2 |
~e3f (eB) (cd) d3e/d/ c2A2 | d4 f3g a4 (GF)ED | G3A B2e2 (d2c2) B2A2 | ~d3e f2g2 Ha3f Hd2B2 | (A3d) (ed)(ef) d4 z2 |]



